X: 1
T: Gan Ainm
M: 2/4
L: 1/8
R: polka
K: Ador
|: eA A/B/c/d/ | ed cd | eA AB | GB GB |
eA A/B/c/d/ | ed cd | eA gB |1 BA e2 :|2 BA A2 ||
|: ea ag/a/ | ba ge | ea ag/a/ | ba g2 |
ea ag/a/ | ba ge | dB gB |1 BA e2 :|2 BA A2 ||
